X:2550
T:Hexham Lasses
C:anon.
O:England
S:Vickers m/s
R:Reel
Z:Chris Partington.
F:http://abc.musicaviva.com/tunes/england/hexham-lasses/hexham-lasses.abc
%Posted at abcusers Jan 2nd 2001 by Johnny Adams.
M:4/4
L:1/8
Q:1/4=200
K:Ddor
D2AG FGAF|DAAG ECCE|D2AG FGAc|BGAF ECCE:|
|:d2fd fdfd|Adfd ecce|d2fd fdfd|fagf ecce:|
W:
W:
W:  From Musica Viva - http://www.musicaviva.com
W:  the Internet center for free sheet music downloads.
